dist/img/svg/vk.svg

<svg width="16" height="10" viewBox="0 0 16 10" fill="none" xmlns="http://www.w3.org/2000/svg">
<path d="M0.54025 0C1.09973 0 1.95227 0 2.43182 0C2.6716 0 2.85809 0.159851 2.93802 0.372987C3.1778 1.06568 3.71063 2.58426 4.3234 3.6233C5.1493 4.98203 5.68213 5.48823 6.02848 5.43494C6.37482 5.35502 6.26826 4.44919 6.26826 3.72986C6.26826 3.01053 6.34818 1.78501 6.00184 1.22553L5.469 0.452912C5.33579 0.266419 5.469 0.026642 5.68213 0.026642H8.71931C9.01237 0.026642 9.25215 0.266419 9.25215 0.55948V4.42255C9.25215 4.42255 9.38536 5.11524 10.1313 4.39591C10.8773 3.67658 11.6766 2.34449 12.3426 0.98575L12.609 0.346345C12.6889 0.159851 12.8754 0.026642 13.0886 0.026642H15.0601C15.4331 0.026642 15.6995 0.399629 15.5663 0.745973L15.3531 1.30545C15.3531 1.30545 14.6338 2.74411 13.8878 3.75651C13.1419 4.79554 12.982 5.03532 13.0886 5.30173C13.1951 5.56815 15.1134 7.35316 15.5929 8.2057C15.7261 8.44548 15.8327 8.65861 15.9393 8.84511C16.1258 9.19145 15.8593 9.64436 15.4597 9.64436H13.2218C13.0353 9.64436 12.8488 9.53779 12.7689 9.37794L12.5557 9.0316C12.5557 9.0316 11.197 7.43309 10.3711 6.92689C9.51857 6.44734 9.54521 7.14003 9.54521 7.14003V8.55204C9.54521 9.13817 9.06565 9.61772 8.47953 9.61772H7.94669C7.94669 9.61772 5.01609 9.61772 2.6716 6.12763C0.833311 3.41016 0.220548 1.6518 0.00741254 0.639405C-0.0458712 0.319703 0.193906 0 0.54025 0Z" fill="white"/>
</svg>

<svg width="16" height="10" viewBox="0 0 16 10" fill="none" xmlns="http://www.w3.org/2000/svg"><path d="M.54 0h1.892c.24 0 .426.16.506.373.24.693.773 2.211 1.385 3.25.826 1.359 1.36 1.865 1.705 1.812.347-.08.24-.986.24-1.705 0-.72.08-1.945-.266-2.504L5.469.453a.266.266 0 01.213-.426H8.72c.293 0 .533.24.533.532v3.864s.133.692.88-.027c.745-.72 1.545-2.052 2.21-3.41l.267-.64a.526.526 0 01.48-.32h1.971c.373 0 .64.374.506.72l-.213.56s-.72 1.438-1.465 2.45c-.746 1.04-.906 1.28-.8 1.546.107.266 2.025 2.051 2.505 2.904.133.24.24.453.346.64.187.345-.08.798-.48.798h-2.237a.516.516 0 01-.453-.266l-.213-.346s-1.359-1.599-2.185-2.105c-.852-.48-.826.213-.826.213v1.412a1.07 1.07 0 01-1.065 1.066h-.533s-2.93 0-5.275-3.49C.833 3.41.22 1.652.007.639A.547.547 0 01.54 0z" fill="#fff"/></svg>
